icons/poisoned.svg

<svg id="icon" xmlns="http://www.w3.org/2000/svg" viewBox="0 0 512 512" width="512" height="512" fill="#ccff99" fill-opacity="1">
  <g transform="translate(0,0)" style="touch-action: none;">
    <path d="M425.344 22.22c-9.027.085-18.7 5.826-24.344 19.405-11.143 26.803-31.93 59.156-58.563 93.47 10.57 8.694 19.85 18.92 27.5 30.31 35.1-26.57 68.882-46.81 98.125-56.75 44.6-15.16 12.02-69.72-35.343-35.343 26.91-27.842 11.107-51.27-7.376-51.093zm-341.22.03c-18.5.378-37.604 23.962-16.343 49.875C31.523 38.635-.802 85.48 37.095 102.813c28.085 12.844 62.54 35.66 99.062 64.343 8.125-12.5 18.207-23.61 29.78-32.937-26.782-35.743-48.44-69.835-61.78-98.47-4.515-9.69-12.22-13.66-20.03-13.5zm169.5 99.688c-67.104 0-121.31 54.21-121.31 121.312 0 44.676 24.04 83.613 59.905 104.656v56.406h18.718v-47.468c5.203 1.95 10.576 3.552 16.093 4.78v42.688h18.69v-40.03c2.614.167 5.247.25 7.905.25 2.637 0 5.25-.086 7.844-.25v40.03h18.686v-42.687c5.52-1.226 10.89-2.834 16.094-4.78v47.467h18.688V347.97c35.92-21.03 60-60.003 60-104.72 0-67.105-54.208-121.313-121.313-121.313zm-66.874 88.218c19.88 0 36 16.12 36 36s-16.12 36-36 36-36-16.12-36-36 16.12-36 36-36zm133.563 0c19.878 0 36 16.12 36 36s-16.122 36-36 36c-19.88 0-36-16.12-36-36s16.12-36 36-36zm-66.72 52.344l29.938 48.188h-59.874l29.938-48.188zm-107.28 70.563c-40.263 32.472-78.546 58.41-109.22 72.437-37.896 17.334-5.57 64.146 30.688 30.656-30.237 36.854 21.167 69.05 36.376 36.406 15.072-32.352 40.727-71.7 72.438-112.5-11.352-7.506-21.564-16.603-30.28-27zm213.156 1.718c-8.155 9.415-17.542 17.72-27.908 24.69 31.846 39.39 56.82 76.862 69.438 107.217 17.203 41.383 71.774 9.722 31.72-31.718 47.363 34.376 79.94-20.185 35.342-35.345-32.146-10.926-69.758-34.3-108.593-64.844z"/>
  </g>
</svg>

<?xml version="1.0" encoding="UTF-8" standalone="no"?>
<!DOCTYPE svg PUBLIC "-//W3C//DTD SVG 1.1//EN" "http://www.w3.org/Graphics/SVG/1.1/DTD/svg11.dtd">
<svg width="100%" height="100%" viewBox="0 0 500 500" version="1.1" xmlns="http://www.w3.org/2000/svg" xmlns:xlink="http://www.w3.org/1999/xlink" xml:space="preserve" xmlns:serif="http://www.serif.com/" style="fill-rule:evenodd;clip-rule:evenodd;stroke-linejoin:round;stroke-miterlimit:2;">
    <g transform="matrix(0.97721,0,0,0.97721,250,250)">
        <g transform="matrix(1,0,0,1,-256,-256)">
            <g>
                <path d="M425.344,22.22C416.317,22.305 406.644,28.046 401,41.625C389.857,68.428 369.07,100.781 342.437,135.095C353.007,143.789 362.287,154.015 369.937,165.405C405.037,138.835 438.819,118.595 468.062,108.655C512.662,93.495 480.082,38.935 432.719,73.312C459.629,45.47 443.826,22.042 425.343,22.219L425.344,22.22ZM84.124,22.25C65.624,22.628 46.52,46.212 67.781,72.125C31.523,38.635 -0.802,85.48 37.095,102.813C65.18,115.657 99.635,138.473 136.157,167.156C144.282,154.656 154.364,143.546 165.937,134.219C139.155,98.476 117.497,64.384 104.157,35.749C99.642,26.059 91.937,22.089 84.127,22.249L84.124,22.25ZM253.624,121.938C186.52,121.938 132.314,176.148 132.314,243.25C132.314,287.926 156.354,326.863 192.219,347.906L192.219,404.312L210.937,404.312L210.937,356.844C216.14,358.794 221.513,360.396 227.03,361.624L227.03,404.312L245.72,404.312L245.72,364.282C248.334,364.449 250.967,364.532 253.625,364.532C256.262,364.532 258.875,364.446 261.469,364.282L261.469,404.312L280.155,404.312L280.155,361.625C285.675,360.399 291.045,358.791 296.249,356.845L296.249,404.312L314.937,404.312L314.937,347.97C350.857,326.94 374.937,287.967 374.937,243.25C374.937,176.145 320.729,121.937 253.624,121.937L253.624,121.938ZM186.75,210.156C206.63,210.156 222.75,226.276 222.75,246.156C222.75,266.036 206.63,282.156 186.75,282.156C166.87,282.156 150.75,266.036 150.75,246.156C150.75,226.276 166.87,210.156 186.75,210.156ZM320.313,210.156C340.191,210.156 356.313,226.276 356.313,246.156C356.313,266.036 340.191,282.156 320.313,282.156C300.433,282.156 284.313,266.036 284.313,246.156C284.313,226.276 300.433,210.156 320.313,210.156ZM253.593,262.5L283.531,310.688L223.657,310.688L253.595,262.5L253.593,262.5ZM146.313,333.063C106.05,365.535 67.767,391.473 37.093,405.5C-0.803,422.834 31.523,469.646 67.781,436.156C37.544,473.01 88.948,505.206 104.157,472.562C119.229,440.21 144.884,400.862 176.595,360.062C165.243,352.556 155.031,343.459 146.315,333.062L146.313,333.063ZM359.469,334.781C351.314,344.196 341.927,352.501 331.561,359.471C363.407,398.861 388.381,436.333 400.999,466.688C418.202,508.071 472.773,476.41 432.719,434.97C480.082,469.346 512.659,414.785 468.061,399.625C435.915,388.699 398.303,365.325 359.468,334.781L359.469,334.781Z" style="fill:rgb(161,225,146);fill-rule:nonzero;"/>
            </g>
        </g>
    </g>
</svg>
